flaticon/stationery/garbage.svg

<svg xmlns="http://www.w3.org/2000/svg" width="32" height="32" viewBox="0 0 24 24">
    <path d="M 19.492188 0 L 4.507812 0 C 3.570312 0 2.808594 0.761719 2.808594 1.699219 L 2.808594 3.503906 C 2.808594 4.265625 3.308594 4.910156 4 5.125 L 4 20.320312 C 4 22.351562 5.648438 24 7.675781 24 L 16.324219 24 C 18.351562 24 20 22.351562 20 20.320312 L 20 5.125 C 20.691406 4.910156 21.191406 4.265625 21.191406 3.503906 L 21.191406 1.699219 C 21.191406 0.761719 20.429688 0 19.492188 0 Z M 18.980469 20.320312 C 18.980469 21.785156 17.789062 22.980469 16.324219 22.980469 L 7.675781 22.980469 C 6.210938 22.980469 5.019531 21.785156 5.019531 20.320312 L 5.019531 5.203125 L 18.980469 5.203125 Z M 20.171875 3.503906 C 20.171875 3.878906 19.867188 4.183594 19.492188 4.183594 L 4.507812 4.183594 C 4.132812 4.183594 3.828125 3.878906 3.828125 3.503906 L 3.828125 1.699219 C 3.828125 1.324219 4.132812 1.019531 4.507812 1.019531 L 19.492188 1.019531 C 19.867188 1.019531 20.171875 1.324219 20.171875 1.699219 Z M 20.171875 3.503906"/>
    <path d="M8.820312 8.257812L9.839844 8.257812 9.839844 19.925781 8.820312 19.925781zM14.160156 8.257812L15.179688 8.257812 15.179688 19.925781 14.160156 19.925781zM14.160156 8.257812"/>
</svg>

<svg xmlns="http://www.w3.org/2000/svg" width="32" height="32" viewBox="0 0 24 24">
    <path d="M19.492 0H4.508a1.7 1.7 0 0 0-1.7 1.7v1.804c0 .762.5 1.406 1.192 1.621V20.32A3.68 3.68 0 0 0 7.676 24h8.648A3.68 3.68 0 0 0 20 20.32V5.125a1.696 1.696 0 0 0 1.191-1.621V1.699A1.7 1.7 0 0 0 19.492 0zm-.512 20.32a2.662 2.662 0 0 1-2.656 2.66H7.676a2.662 2.662 0 0 1-2.656-2.66V5.203h13.96zm1.192-16.816a.68.68 0 0 1-.68.68H4.508a.68.68 0 0 1-.68-.68V1.699a.68.68 0 0 1 .68-.68h14.984a.68.68 0 0 1 .68.68zm0 0"/>
    <path d="M8.82 8.258h1.02v11.668H8.82zm0 0M14.16 8.258h1.02v11.668h-1.02zm0 0"/>
</svg>
